X:215
T: HILF O HIMMEL ICH MUSS SCHEIDEN
N: E0792
O: Europa, Mitteleuropa, Deutschland, Hessen, Darmstadt, Jugenheim
R: Abschieds - Lied, Liebe
M: 3/4
L: 1/8
K: F
AG | F2F2GB | A2c2
Ac | B2d2cA | G4
AG | F2F2GB | A2c2
Bd | c2A2GA | F4

